frontend/public/svg/interface/stopwatch.svg

<svg width="120" height="126" viewBox="0 0 120 126" fill="none" xmlns="http://www.w3.org/2000/svg">
<g clip-path="url(#clip0)">
<path d="M44.7266 16.8446C44.8996 13.6139 45.07 10.4356 45.2671 6.75637C43.5452 6.75637 42.0221 6.81453 40.5051 6.7428C38.1055 6.62973 37.2147 5.97521 37.097 4.39988C36.9722 2.72828 38.0262 1.67885 40.3236 1.34737C41.5383 1.19486 42.7605 1.10864 43.9847 1.08898C53.0976 0.777098 62.2112 0.475624 71.3254 0.184424C71.8781 0.163802 72.4315 0.21056 72.9726 0.323878C74.9234 0.746464 76.0288 2.00397 76.0119 3.7124C76.0041 4.55246 75.6887 5.36094 75.125 5.98656C74.5605 6.61215 73.786 7.01186 72.9465 7.11105C71.4321 7.36111 69.876 7.35917 68.1092 7.48582V16.326C77.8125 17.2803 86.0008 21.8615 94.2592 27.368C96.2562 25.7449 98.3729 24.18 100.307 22.4199C105.913 17.325 109.007 17.6892 113.104 23.3727C114.154 24.6625 115.292 25.8794 116.509 27.0147C119.654 30.301 119.734 32.8527 116.645 36.2605C114.568 38.5518 112.365 40.7311 110.157 43.0243C111.612 45.6548 113.083 48.2272 114.474 50.8428C122.403 65.7512 121.268 87.9317 108.431 102.377C97.7428 114.406 84.6268 121.665 68.9071 124.605C54.0015 127.391 39.7027 125.204 25.9065 119.268C16.2961 115.133 9.68737 107.823 6.05948 98.3367C-1.24049 79.2487 -0.0355587 60.468 9.68276 42.3454C13.4069 35.4011 19.2281 30.456 25.6144 26.1429C29.3061 23.6899 33.1475 21.4672 37.1165 19.4877C39.4471 18.3065 42.0846 17.737 44.7266 16.8446ZM11.4412 74.5899C11.4321 80.6373 12.3997 86.6472 14.3069 92.3902C17.7046 102.406 23.968 109.684 34.3216 112.997C57.578 120.438 78.7262 116.841 97.0509 100.449C110.677 88.2606 113.468 70.2026 104.541 54.3251C97.4027 41.6268 86.6361 33.0852 72.9062 28.2681C66.581 26.0843 59.8756 25.1988 53.1959 25.6649C45.2274 26.1611 38.1095 29.2188 31.3642 33.2036C24.2934 37.3012 18.7966 43.621 15.7408 51.1665C12.689 58.4674 11.7734 66.0562 11.4412 74.5899ZM52.4415 7.28551C52.6144 10.1932 52.7803 12.979 52.9455 15.7574H60.3352C60.7631 12.9059 61.1676 10.2132 61.6071 7.28551H52.4415ZM112.338 31.5674L107.222 25.8936L101.031 32.4243L105.162 36.9758L112.338 31.5674Z" fill="black"/>
<path d="M62.8258 68.3911C67.3693 68.5112 71.6825 68.603 75.9939 68.7535C77.3224 68.751 78.6476 68.8938 79.9449 69.1794C80.7226 69.3254 81.4249 69.7344 81.9328 70.3366C82.4413 70.9395 82.7235 71.6981 82.732 72.4844C82.7534 73.3244 82.4842 74.1457 81.9699 74.8125C81.4561 75.4794 80.7272 75.9511 79.9059 76.1494C78.7374 76.5061 77.5181 76.6696 76.2962 76.634C70.2994 76.34 64.3079 75.9362 58.3143 75.5763C55.6781 75.418 54.4035 74.3615 54.1115 71.8228C54.0118 70.6112 54.042 69.3932 54.2019 68.1888C54.9567 60.8262 55.737 53.4668 56.5429 46.1101C56.69 44.9049 56.9128 43.7102 57.2101 42.5326C57.5535 41.1014 58.4365 40.1779 59.9978 40.1417C61.7535 40.1017 62.6444 41.153 62.9409 42.7263C63.1936 43.9139 63.3243 45.1238 63.3311 46.3376C63.201 52.7442 62.9988 59.1503 62.8278 65.5564C62.8076 66.3234 62.8258 67.0903 62.8258 68.3911Z" fill="black"/>
</g>
<defs>
<clipPath id="clip0">
<rect width="119" height="126" fill="white" transform="translate(0.777344)"/>
</clipPath>
</defs>
</svg>

<svg xmlns="http://www.w3.org/2000/svg" width="120" height="126" fill="none" viewBox="0 0 120 126"><g fill="#000" clip-path="url(#a)"><path d="m44.727 16.845.54-10.089c-1.722 0-3.245.059-4.762-.013-2.4-.113-3.29-.768-3.408-2.343-.125-1.672.93-2.721 3.227-3.053a34 34 0 0 1 3.66-.258Q57.655.622 71.326.184a6.8 6.8 0 0 1 1.648.14c1.95.422 3.056 1.68 3.039 3.388a3.45 3.45 0 0 1-.887 2.275 3.5 3.5 0 0 1-2.178 1.124c-1.515.25-3.071.248-4.838.375v8.84c9.704.954 17.892 5.535 26.15 11.042 1.997-1.623 4.114-3.188 6.048-4.948 5.606-5.095 8.7-4.73 12.797.953a36.5 36.5 0 0 0 3.405 3.642c3.145 3.286 3.225 5.838.136 9.246-2.077 2.29-4.28 4.47-6.488 6.763 1.455 2.63 2.926 5.203 4.317 7.819 7.929 14.908 6.794 37.089-6.043 51.534-10.688 12.029-23.804 19.288-39.524 22.228-14.905 2.786-29.204.599-43-5.337-9.61-4.135-16.22-11.445-19.848-20.931-7.3-19.088-6.095-37.869 3.624-55.992 3.724-6.944 9.545-11.889 15.931-16.202a107 107 0 0 1 11.503-6.655c2.33-1.181 4.968-1.751 7.61-2.643M11.44 74.59a56.2 56.2 0 0 0 2.866 17.8c3.398 10.016 9.661 17.294 20.015 20.607 23.256 7.441 44.404 3.844 62.729-12.548 13.626-12.188 16.417-30.246 7.49-46.124-7.138-12.698-17.905-21.24-31.635-26.057a49.8 49.8 0 0 0-19.71-2.603c-7.969.496-15.086 3.554-21.832 7.539A36.7 36.7 0 0 0 15.74 51.167c-3.052 7.3-3.968 14.89-4.3 23.423m41-67.304.505 8.471h7.39l1.271-8.471zm59.897 24.281-5.116-5.673-6.191 6.53 4.131 4.552z"/><path d="M62.826 68.391c4.543.12 8.857.212 13.168.362a18.2 18.2 0 0 1 3.95.426c.779.146 1.48.555 1.989 1.158.508.602.79 1.361.799 2.147a3.66 3.66 0 0 1-.762 2.329 3.7 3.7 0 0 1-2.064 1.336c-1.169.357-2.388.52-3.61.485-5.997-.294-11.988-.698-17.982-1.058-2.636-.158-3.91-1.214-4.203-3.753-.1-1.212-.069-2.43.09-3.634q1.134-11.044 2.342-22.079.221-1.81.667-3.577c.343-1.432 1.227-2.355 2.788-2.391 1.756-.04 2.646 1.011 2.943 2.584a18 18 0 0 1 .39 3.612c-.13 6.406-.332 12.812-.503 19.218-.02.767-.002 1.534-.002 2.835"/></g><defs><clipPath id="a"><path fill="#fff" d="M.777 0h119v126h-119z"/></clipPath></defs></svg>
